X: 556
T: Of noble Race was Shinkin
P: Longways for as many as will
%R: reel
B: "The Compleat Country Dancing-Master" printed by John Walsh, London ca. 1740
S: 6: CCDM1 http://imslp.org/wiki/The_Compleat_Country_Dancing-Master_(Various) V.1 p.36 #70
B: "The Dancing-Master: Containing Directions and Tunes for Dancing" printed by W. Pearson for John Walsh, London ca. 1709
S: 7: DMDfD http://digital.nls.uk/special-collections-of-printed-music/pageturner.cfm?id=89751228 p.168
Z: 2013 John Chambers <jc:trillian.mit.edu>
M: C|
L: 1/8
K: Dm
% - - - - - - - - - - - - - - - - - - - - - - - - -
e2 |\
f2 (dc) (^cd) (e^c) | d2 D4 e2 |\
f2 (ed) (^cd) (e^c) | d6 |]\
e2 |\
f2 f2 c2 c2 | f2 f6 |\
F4 E4 | D4 ^C2 e2 |\
f2 f2 e3 e | d2 d2 ^c3 A |\
B2 G2 A2 ^c2 | d2 d4 |]
% - - - - - - - - - - - - - - - - - - - - - - - - -
%%begintext align
%% The 1st Man sett to the 2d Wo. and fall back and turn S. Then
%% 1st Wo. sett to the 2d Man, and fall back and turn S. the 1st Man
%% change Places with the 2d. Wo. then 1st Wo. change Places with
%% the 2d Man, then all four meet and turn S. then the 1st Cu. being
%% in the 2d Cu. Place, lead thro' and cast off.
%% [CCDM1]
%%endtext
%%sep 1 1 500
% - - - - - - - - - - - - - - - - - - - - - - - - -
%%begintext align
%% The 1. man set to the 2. wo. and fall back and turn S. Then 1. wo. set to the 2. man, and fall back and
%% turn S. the 1. man change places with the 2. wo. then 1. wo. change places with the 2. man, then all
%% four meet and turn S. Then 1. cu. being in the 2. cu. place, lead through and cast off.
%% [DMDfD]
%%endtext
%%sep 1 5 500

%%sep 1 1 500
%%sep 1 1 500
